X:1
T:Title
%%score { ( 1 4 ) | ( 2 3 ) }
L:1/8
Q:1/4=100
M:6/8
K:G
V:1 treble nm="Grand Piano"
V:4 treble 
V:2 treble 
V:3 treble 
V:1
 B2 G GFG | B2 A A3 | ABA AG[A,DF] | [B,DG]2 [DFA] [DGB]3 | [DBd]>[DGB][DGB] [DGB]2 [DGB] | %5
w: J.~P.~Dimmitt * * * *|||||
 [CGc]2 [Gd] [Ge]3 | ded [DBd]2 [EGc] | [DGB]2 [CFA] [B,G]3 | [DGB]3 [B,DG]3 | [FA][EG][FA] B3 | %10
w: |||||
 ded BA[B,G] | F3- [Fd]3 | d3 B2 B | [EA][EG]E [Ec]3 | [DGB][CDA][B,DG] [CFA]<[DFB][CDA] | %15
w: |||||
 [B,DG]6 |] %16
w: |
V:2
 [G,DG]2 [G,B,D] [G,B,D][G,A,D][G,B,D] | [D,G,D]2 [D,F,D] [D,F,D]3 | z3 .C3 | D,2 D, G,3 | %4
 G,>G,G, G,2 =F, | E,2 [D,B,] [C,C]3 | [G,B,G][G,CG][G,B,G][K:bass] G,2 C, | D,2 D, G,,3 | %8
 G,3 G,3 | [D,D][D,D][D,D][K:treble] [G,DG]3 | z3 .D3[K:bass] | z3 A,3 | [G,B,G]3 [G,DG]2 [G,DG] | %13
 [C,C][C,C][C,C] [C,G,]3 | D,D,D, D,<D,D, | G,,6 |] %16
V:3
 x6 | x6 | [D,CD][D,D][D,CD] [D,D]-[D,B,D]D, | x6 | x6 | x6 | x3[K:bass] x3 | x6 | x6 | %9
 x3[K:treble] x3 | [G,B,G][G,CG][G,B,G] [G,G]-[G,CG][K:bass]G, | D,6 | x6 | x6 | x6 | x6 |] %16
V:4
 x6 | x6 | x6 | x6 | x6 | x6 | x6 | x6 | x6 | x6 | x6 | [DA]3 z3 | x6 | x6 | x6 | x6 |] %16

